X:581
T: "Fruehlingslied"
N: Z1261
O: Europa, Mitteleuropa, Steiermark
R: Natur und Welt
M: 3/4
L: 1/8
K: D
A,3G, | F,G,A,B,CD | B,E
GFED | CBA3G | FD
A,3G, | F,G,A,B,CD | B,E
GFED | CBA2GC | D2z2
A,D | CGA,3C | DFA,3
D | CGA,3C | DFA,DCB, |
A,2CE,A,C | F3
EDC | B,DG,B,CE, | D,2

@@@ Tune index: 10339
